MonoIcons/scalable/status/network-cellular-offline-symbolic.svg

<?xml version="1.0" encoding="UTF-8"?>
<svg height="16px" viewBox="0 0 16 16" width="16px" xmlns="http://www.w3.org/2000/svg">
    <path d="m 13 1 c -0.554688 0 -1 0.445312 -1 1 v 7.269531 c 0.148438 0.089844 0.289062 0.191407 0.414062 0.316407 l 0.414063 0.414062 h 0.34375 l 0.414063 -0.414062 c 0.375 -0.375 0.882812 -0.585938 1.414062 -0.585938 v -7 c 0 -0.554688 -0.445312 -1 -1 -1 z m -4 3 c -0.554688 0 -1 0.445312 -1 1 v 9 c 0 0.554688 0.445312 1 1 1 h 0.007812 c 0 -0.515625 0.191407 -1.027344 0.578126 -1.414062 l 0.414062 -0.414063 v -0.34375 l -0.414062 -0.414063 c -0.773438 -0.773437 -0.773438 -2.054687 0 -2.828124 c 0.375 -0.375 0.882812 -0.585938 1.414062 -0.585938 v -4 c 0 -0.554688 -0.445312 -1 -1 -1 z m -4 3 c -0.554688 0 -1 0.445312 -1 1 v 6 c 0 0.554688 0.445312 1 1 1 h 1 c 0.554688 0 1 -0.445312 1 -1 v -6 c 0 -0.554688 -0.445312 -1 -1 -1 z m -4 3 c -0.554688 0 -1 0.445312 -1 1 v 3 c 0 0.554688 0.445312 1 1 1 h 1 c 0.554688 0 1 -0.445312 1 -1 v -3 c 0 -0.554688 -0.445312 -1 -1 -1 z m 0 0" fill="#2e3434" fill-opacity="0.34902"/>
    <path d="m 11 10 c -0.265625 0 -0.519531 0.105469 -0.707031 0.292969 c -0.390625 0.390625 -0.390625 1.023437 0 1.414062 l 1.292969 1.292969 l -1.292969 1.292969 c -0.390625 0.390625 -0.390625 1.023437 0 1.414062 s 1.023437 0.390625 1.414062 0 l 1.292969 -1.292969 l 1.292969 1.292969 c 0.390625 0.390625 1.023437 0.390625 1.414062 0 s 0.390625 -1.023437 0 -1.414062 l -1.292969 -1.292969 l 1.292969 -1.292969 c 0.390625 -0.390625 0.390625 -1.023437 0 -1.414062 c -0.1875 -0.1875 -0.441406 -0.292969 -0.707031 -0.292969 s -0.519531 0.105469 -0.707031 0.292969 l -1.292969 1.292969 l -1.292969 -1.292969 c -0.1875 -0.1875 -0.441406 -0.292969 -0.707031 -0.292969 z m 0 0" fill="#2e3436"/>
</svg>

<svg width="16" height="16" viewBox="0 0 16 16" fill="none" xmlns="http://www.w3.org/2000/svg">
<g clip-path="url(#clip0_231_1315)">
<path d="M13 1C12.4453 1 12 1.44531 12 2V9.26953C12.1484 9.35938 12.2891 9.46094 12.4141 9.58594L12.8281 10H13.1719L13.5859 9.58594C13.9609 9.21094 14.4688 9 15 9V2C15 1.44531 14.5547 1 14 1H13ZM9 4C8.44531 4 8 4.44531 8 5V14C8 14.5547 8.44531 15 9 15H9.00781C9.00781 14.4844 9.19922 13.9727 9.58594 13.5859L10 13.1719V12.8281L9.58594 12.4141C8.8125 11.6406 8.8125 10.3594 9.58594 9.58594C9.96094 9.21094 10.4688 9 11 9V5C11 4.44531 10.5547 4 10 4H9ZM5 7C4.44531 7 4 7.44531 4 8V14C4 14.5547 4.44531 15 5 15H6C6.55469 15 7 14.5547 7 14V8C7 7.44531 6.55469 7 6 7H5ZM1 10C0.445312 10 0 10.4453 0 11V14C0 14.5547 0.445312 15 1 15H2C2.55469 15 3 14.5547 3 14V11C3 10.4453 2.55469 10 2 10H1Z" fill="#2E3436" fill-opacity="0.5"/>
<path d="M11 10C10.7344 10 10.4805 10.1055 10.293 10.293C9.90234 10.6836 9.90234 11.3164 10.293 11.707L11.5859 13L10.293 14.293C9.90234 14.6836 9.90234 15.3164 10.293 15.707C10.6836 16.0977 11.3164 16.0977 11.707 15.707L13 14.4141L14.293 15.707C14.6836 16.0977 15.3164 16.0977 15.707 15.707C16.0977 15.3164 16.0977 14.6836 15.707 14.293L14.4141 13L15.707 11.707C16.0977 11.3164 16.0977 10.6836 15.707 10.293C15.5195 10.1055 15.2656 10 15 10C14.7344 10 14.4805 10.1055 14.293 10.293L13 11.5859L11.707 10.293C11.5195 10.1055 11.2656 10 11 10V10Z" fill="#2E3436"/>
</g>
<defs>
<clipPath id="clip0_231_1315">
<rect width="16" height="16" fill="white"/>
</clipPath>
</defs>
</svg>
